src/next/cmd/ru/lc_underlinedouble.svg

<svg height="24" viewBox="0 0 6.3499999 6.3500002" width="24" xmlns="http://www.w3.org/2000/svg" xmlns:xlink="http://www.w3.org/1999/xlink"><linearGradient id="a" gradientUnits="userSpaceOnUse" x1="18.472468" x2="18.472468" y1="1.539849" y2="15.3942"><stop offset="0" stop-color="#3b3e22"/><stop offset="1" stop-color="#454545" stop-opacity="0"/></linearGradient><linearGradient id="b" gradientUnits="userSpaceOnUse" x1="20.221542" x2="19.856923" y1="28.495049" y2="4.833665"><stop offset="0" stop-color="#555"/><stop offset="1"/></linearGradient><g transform="matrix(.171875 0 0 .171875 .264624 .264542)"><path d="m11.474723 13.590302q0 1.708681 1.035564 2.847802 1.087343 1.087343 2.951359 1.087343 1.139121 0 2.433577-.414226 1.346233-.414226 2.071129-.828452l.724895-.362447v-6.4722784q0-2.0193508-.673117-2.7960242-.621339-.7766733-2.64069-.9837862v-.7766734h10.976984v.7766734q-2.071129.2588911-2.692468.9837862-.621338.673117-.621338 2.7960242v13.4623384q0 2.692468.621338 3.469141.621339.776674 2.692468 1.035565v.776673h-10.976984v-.776673q2.122908-.258891 2.692468-.983787.621339-.724895.621339-3.520919v-5.643826q-2.899581 1.812237-6.472278 1.812237-1.035565 0-2.122908-.207112-1.087342-.258892-2.2782415-.776674-1.1908992-.56956-1.9675725-1.708681-.7248952-1.139121-.7248952-2.692468v-4.2458144q-.0517782-2.1746855-.6731169-2.8478024-.6213387-.6731169-2.6406895-.932008v-.7766734h10.9769836v.7766734q-2.019351.2588911-2.692468.9837862-.621338.673117-.621338 2.7960242z" fill="url(#b)" stroke-width="1.230085" transform="scale(1.0465633 .95550838)"/><path d="m6.4471518 5.3578115c.3058386.1431272.6347646.2645968.8562786.4836914.6998105.692168.8655336 1.7204612.9033039 3.1687991a.7496314.68441065 0 0 1 0 .016536v4.057117c0 .878605.2177166 1.590245.6361369 2.194698.4714613.628197 1.0444758 1.080978 1.7513148 1.390613.78367.309917 1.526178.539552 2.22622.692464.70815.121995 1.394338.182418 2.060339.182418.402961 0 .756498-.106592 1.144633-.137977-1.376694-.03041-2.587569-.417818-3.46232-1.216463a.7496314.68441065 0 0 1 -.02481-.02274c-.848066-.851711-1.279503-1.955188-1.279504-3.181715v-3.9584146c0-1.41899.150493-2.4432639.850078-3.1352094a.7496314.68441065 0 0 1 0-.00206c.240481-.2364542.592008-.3768532.928109-.5317575zm14.1732952 0c.329787.1622578.677109.3077604.90382.5637898.671316.7155722.880567 1.7496145.880567 3.1052371v6.1846356a.7496314.68441065 0 0 1 -.414962.612365l-.07338.03359a.7496314.68441065 0 0 1 .488343.640271v3.140893a22.320898 9.2362338 0 0 0 3.05201-.476973v-10.1347816c0-1.4128178.152611-2.4320292.844393-3.1238405.233323-.245681.580803-.3886901.915707-.5451864zm-1.669666 11.6437335c-.001.000291-.001.0013-.0021.0016l.0078-.0016c-.0021.000609-.0036-.000609-.0057 0zm-.59893.09302c-.134023.03144-.265284.05126-.395841.07028.134739-.01705.268625-.03643.395841-.07028zm-.395841.07028c-.174249.02205-.350328.03975-.519865.07183.173642-.02453.345989-.0465.519865-.07183z" fill="url(#a)" stroke-width="1.230085"/><g fill="#010101" stroke-width=".264583"><rect height="1.539372" rx=".472075" ry=".607224" width="27.708702" x="3.078745" y="29.248551"/><rect height="1.539372" rx=".472075" ry=".607224" width="27.708702" x="3.078745" y="32.327295"/></g></g></svg>

<?xml version="1.0" encoding="UTF-8" standalone="no"?>
<svg
   xmlns:dc="http://purl.org/dc/elements/1.1/"
   xmlns:cc="http://creativecommons.org/ns#"
   xmlns:rdf="http://www.w3.org/1999/02/22-rdf-syntax-ns#"
   xmlns:svg="http://www.w3.org/2000/svg"
   xmlns="http://www.w3.org/2000/svg"
   xmlns:xlink="http://www.w3.org/1999/xlink"
   xmlns:sodipodi="http://sodipodi.sourceforge.net/DTD/sodipodi-0.dtd"
   xmlns:inkscape="http://www.inkscape.org/namespaces/inkscape"
   height="24"
   viewBox="0 0 6.3499999 6.3500002"
   width="24"
   version="1.1"
   id="svg20"
   sodipodi:docname="lc_underlinedouble.svg"
   inkscape:version="0.92.4 (unknown)"
   inkscape:export-filename="/home/rizmut/Dokumen/Rizmut/Github/libreoffice-style-karasa-jaga/build/next/cmd/ru/lc_underlinedouble.png"
   inkscape:export-xdpi="96"
   inkscape:export-ydpi="96">
  <metadata
     id="metadata26">
    <rdf:RDF>
      <cc:Work
         rdf:about="">
        <dc:format>image/svg+xml</dc:format>
        <dc:type
           rdf:resource="http://purl.org/dc/dcmitype/StillImage" />
        <dc:title></dc:title>
      </cc:Work>
    </rdf:RDF>
  </metadata>
  <defs
     id="defs24">
    <linearGradient
       gradientTransform="scale(0.26458334)"
       inkscape:collect="always"
       xlink:href="#b"
       id="linearGradient845"
       x1="69.8172"
       y1="5.8199005"
       x2="69.8172"
       y2="58.1828"
       gradientUnits="userSpaceOnUse" />
    <linearGradient
       id="linearGradient43"
       gradientUnits="userSpaceOnUse"
       x1="53.856667"
       x2="72.864624"
       y1="1.845663"
       y2="61.042988"
       gradientTransform="matrix(0.21695833,0,0,0.21695833,3.048,3.0518754)">
      <stop
         offset="0"
         stop-color="#3b3e22"
         id="stop7-3" />
      <stop
         offset="1"
         stop-color="#454545"
         stop-opacity="0"
         id="stop9-6" />
    </linearGradient>
    <linearGradient
       inkscape:collect="always"
       xlink:href="#a"
       id="linearGradient23"
       gradientUnits="userSpaceOnUse"
       gradientTransform="matrix(1.203077,0,0,1.203077,-2.6322152,-326.19924)"
       x1="18.996088"
       y1="294.8226"
       x2="18.693016"
       y2="275.15521" />
    <linearGradient
       id="linearGradient48"
       gradientUnits="userSpaceOnUse"
       x1="18.996088"
       x2="20.22575"
       y1="294.8226"
       y2="266.54037"
       gradientTransform="matrix(0.7835169,0,0,0.7835169,2.9123897,-203.09999)">
      <stop
         offset="0"
         stop-color="#555"
         id="stop2-7" />
      <stop
         offset="1"
         id="stop4-5" />
    </linearGradient>
    <linearGradient
       inkscape:collect="always"
       xlink:href="#a"
       id="linearGradient865"
       gradientUnits="userSpaceOnUse"
       gradientTransform="matrix(1.203077,0,0,1.203077,-2.632215,-326.19925)"
       x1="18.996088"
       y1="294.8226"
       x2="20.22575"
       y2="266.54037" />
  </defs>
  <sodipodi:namedview
     pagecolor="#ffffff"
     bordercolor="#666666"
     borderopacity="1"
     objecttolerance="10"
     gridtolerance="10"
     guidetolerance="10"
     inkscape:pageopacity="0"
     inkscape:pageshadow="2"
     inkscape:window-width="1366"
     inkscape:window-height="706"
     id="namedview22"
     showgrid="true"
     inkscape:zoom="29.5"
     inkscape:cx="9.063437"
     inkscape:cy="17.369332"
     inkscape:window-x="0"
     inkscape:window-y="0"
     inkscape:window-maximized="1"
     inkscape:current-layer="g842">
    <inkscape:grid
       type="xygrid"
       id="grid19"
       spacingx="0.13229167"
       spacingy="0.13229167" />
  </sodipodi:namedview>
  <linearGradient
     id="a"
     gradientUnits="userSpaceOnUse"
     x1="18.996088"
     x2="20.22575"
     y1="294.8226"
     y2="266.54037"
     gradientTransform="matrix(0.7835169,0,0,0.7835169,2.9123897,-203.09999)">
    <stop
       offset="0"
       stop-color="#555"
       id="stop2" />
    <stop
       offset="1"
       id="stop4" />
  </linearGradient>
  <linearGradient
     id="b"
     gradientUnits="userSpaceOnUse"
     x1="53.856667"
     x2="72.864624"
     y1="1.845663"
     y2="61.042988"
     gradientTransform="matrix(0.21695833,0,0,0.21695833,3.048,3.0518754)">
    <stop
       offset="0"
       stop-color="#3b3e22"
       id="stop7" />
    <stop
       offset="1"
       stop-color="#454545"
       stop-opacity="0"
       id="stop9" />
  </linearGradient>
  <g
     id="g842"
     transform="matrix(0.171875,0,0,0.171875,0.26462416,0.26454228)">
    <g
       aria-label="ч"
       transform="scale(1.0465633,0.95550838)"
       style="font-size:49.20341492px;font-family:sans-serif;letter-spacing:0;word-spacing:0;fill:url(#linearGradient23);stroke-width:1.2300849"
       id="text21">
      <path
         d="m 11.474723,13.590302 q 0,1.708681 1.035564,2.847802 1.087343,1.087343 2.951359,1.087343 1.139121,0 2.433577,-0.414226 1.346233,-0.414226 2.071129,-0.828452 l 0.724895,-0.362447 V 9.4480436 q 0,-2.0193508 -0.673117,-2.7960242 Q 19.396791,5.8753461 17.37744,5.6682332 V 4.8915598 h 10.976984 v 0.7766734 q -2.071129,0.2588911 -2.692468,0.9837862 -0.621338,0.673117 -0.621338,2.7960242 V 22.910382 q 0,2.692468 0.621338,3.469141 0.621339,0.776674 2.692468,1.035565 v 0.776673 H 17.37744 v -0.776673 q 2.122908,-0.258891 2.692468,-0.983787 0.621339,-0.724895 0.621339,-3.520919 v -5.643826 q -2.899581,1.812237 -6.472278,1.812237 -1.035565,0 -2.122908,-0.207112 Q 11.008719,18.612789 9.8178195,18.095007 8.6269203,17.525447 7.850247,16.386326 7.1253518,15.247205 7.1253518,13.693858 V 9.4480436 Q 7.0735736,7.2733581 6.4522349,6.6002412 5.8308962,5.9271243 3.8115454,5.6682332 V 4.8915598 H 14.788529 v 0.7766734 q -2.019351,0.2588911 -2.692468,0.9837862 -0.621338,0.673117 -0.621338,2.7960242 z"
         style="font-style:normal;font-variant:normal;font-weight:normal;font-stretch:normal;font-size:51.77822495px;font-family:FreeSerif;-inkscape-font-specification:FreeSerif;fill:url(#linearGradient23);stroke-width:1.2300849"
         id="path844" />
    </g>
    <path
       id="text27"
       d="M 6.4471518,5.3578115 C 6.7529904,5.5009387 7.0819164,5.6224083 7.3034304,5.8415029 8.0032409,6.5336709 8.168964,7.5619641 8.2067343,9.010302 a 0.7496314,0.68441065 0 0 1 0,0.016536 v 4.057117 c 0,0.878605 0.2177166,1.590245 0.6361369,2.194698 0.4714613,0.628197 1.0444758,1.080978 1.7513148,1.390613 0.78367,0.309917 1.526178,0.539552 2.22622,0.692464 0.70815,0.121995 1.394338,0.182418 2.060339,0.182418 0.402961,0 0.756498,-0.106592 1.144633,-0.137977 -1.376694,-0.03041 -2.587569,-0.417818 -3.46232,-1.216463 a 0.7496314,0.68441065 0 0 1 -0.02481,-0.02274 C 11.690182,15.315257 11.258745,14.21178 11.258744,12.985253 V 9.0268384 c 0,-1.41899 0.150493,-2.4432639 0.850078,-3.1352094 a 0.7496314,0.68441065 0 0 1 0,-0.00206 C 12.349303,5.6531148 12.70083,5.5127158 13.036931,5.3578115 Z m 14.1732952,0 c 0.329787,0.1622578 0.677109,0.3077604 0.90382,0.5637898 0.671316,0.7155722 0.880567,1.7496145 0.880567,3.1052371 v 6.1846356 a 0.7496314,0.68441065 0 0 1 -0.414962,0.612365 l -0.07338,0.03359 a 0.7496314,0.68441065 0 0 1 0.488343,0.640271 v 3.140893 a 22.320898,9.2362338 0 0 0 3.05201,-0.476973 V 9.0268384 c 0,-1.4128178 0.152611,-2.4320292 0.844393,-3.1238405 0.233323,-0.245681 0.580803,-0.3886901 0.915707,-0.5451864 z M 18.950781,17.001545 c -10e-4,2.91e-4 -10e-4,0.0013 -0.0021,0.0016 l 0.0078,-0.0016 c -0.0021,6.09e-4 -0.0036,-6.09e-4 -0.0057,0 z m -0.59893,0.09302 c -0.134023,0.03144 -0.265284,0.05126 -0.395841,0.07028 0.134739,-0.01705 0.268625,-0.03643 0.395841,-0.07028 z m -0.395841,0.07028 c -0.174249,0.02205 -0.350328,0.03975 -0.519865,0.07183 0.173642,-0.02453 0.345989,-0.0465 0.519865,-0.07183 z"
       style="font-size:49.20341492px;font-family:sans-serif;letter-spacing:0;word-spacing:0;fill:url(#linearGradient845);fill-opacity:1;stroke-width:1.2300849"
       inkscape:connector-curvature="0" />
    <g
       id="g25"
       style="fill:#010101"
       transform="scale(0.26458334)">
      <rect
         id="rect21-4"
         y="110.5457"
         x="11.6362"
         width="104.7258"
         ry="2.2950201"
         rx="1.78422"
         height="5.8181" />
      <rect
         id="rect23"
         y="122.1819"
         x="11.6362"
         width="104.7258"
         ry="2.2950201"
         rx="1.78422"
         height="5.8181" />
    </g>
  </g>
</svg>
